X:55
T:Dust On The Road
R:jig
C:Bruce Osborne - Oct. 2002
Z:abc by bosborne@kos.net
M:6/8
L:1/8
K:Gmaj
D|G2 G GFG|GBd dBG|FAA ABA|GBe dBA|\
G2 G GFG|GBd dBG|FAA ABA|GBA G2:|
|:B/c/|dBd ece|dBG GFG|AFD DEF|GBe dBc|\
dBd ece|dBG GFG|AFD DEF|GBA G2:|
